src/img/swiperIndicator.svg

<svg width="86" height="47" viewBox="0 0 86 47" fill="none" xmlns="http://www.w3.org/2000/svg">
<g clip-path="url(#clip0_1200_9806)">
<rect x="86" width="46.7391" height="86" rx="9.45652" transform="rotate(90 86 0)" fill="#002007"/>
<path d="M8.92421 42.0644C6.83513 42.0644 5.1416 40.3709 5.1416 38.2818L5.1416 30.7051C5.1416 21.8702 5.1416 16.4086 5.1416 8.45722C5.1416 6.36814 6.83513 4.67315 8.92421 4.67314L77.5438 4.67314C79.6328 4.67314 81.3264 6.36667 81.3264 8.45575L81.3264 38.2818C81.3264 40.3709 79.6328 42.0644 77.5438 42.0644L8.92421 42.0644Z" fill="#002007"/>
<path d="M5.1416 30.7051L5.6416 30.7051L5.1416 30.7051ZM81.3264 38.2818L81.8264 38.2818L81.3264 38.2818ZM77.5438 42.0644L77.5438 41.5644L77.5438 42.0644ZM77.5438 4.67314L77.5438 4.17314L77.5438 4.67314ZM81.3264 8.45575L80.8264 8.45575L81.3264 8.45575ZM8.92421 4.67314L8.92421 5.17314L8.92421 4.67314ZM8.92421 42.0644L8.92421 42.5644L8.92421 42.0644ZM5.1416 38.2818L4.6416 38.2818L5.1416 38.2818ZM8.92421 5.17314L77.5438 5.17314L77.5438 4.17314L8.92421 4.17314L8.92421 5.17314ZM80.8264 8.45575L80.8264 38.2818L81.8264 38.2818L81.8264 8.45575L80.8264 8.45575ZM77.5438 41.5644L8.92421 41.5644L8.92421 42.5644L77.5438 42.5644L77.5438 41.5644ZM5.6416 38.2818L5.6416 30.7051L4.6416 30.7051L4.6416 38.2818L5.6416 38.2818ZM5.6416 30.7051C5.6416 26.287 5.6416 22.7142 5.6416 19.2498C5.6416 15.7854 5.6416 12.4336 5.6416 8.45722L4.6416 8.45722C4.6416 12.4326 4.6416 15.7865 4.6416 19.2498C4.6416 22.7131 4.6416 26.2881 4.6416 30.7051L5.6416 30.7051ZM80.8264 38.2818C80.8264 40.0948 79.3567 41.5644 77.5438 41.5644L77.5438 42.5644C79.909 42.5644 81.8264 40.6471 81.8264 38.2818L80.8264 38.2818ZM77.5438 5.17314C79.3567 5.17314 80.8264 6.64281 80.8264 8.45575L81.8264 8.45575C81.8264 6.09053 79.909 4.17314 77.5438 4.17314L77.5438 5.17314ZM8.92421 4.17314C6.55874 4.17315 4.6416 6.09225 4.6416 8.45722L5.6416 8.45722C5.6416 6.64403 7.11153 5.17315 8.92421 5.17314L8.92421 4.17314ZM8.92421 41.5644C7.11128 41.5644 5.6416 40.0948 5.6416 38.2818L4.6416 38.2818C4.6416 40.6471 6.55899 42.5644 8.92421 42.5644L8.92421 41.5644Z" fill="#66994D"/>
</g>
<defs>
<clipPath id="clip0_1200_9806">
<rect x="86" width="46.7391" height="86" rx="9.45652" transform="rotate(90 86 0)" fill="white"/>
</clipPath>
</defs>
</svg>

<svg xmlns="http://www.w3.org/2000/svg" width="86" height="47" fill="none" viewBox="0 0 86 47"><g clip-path="url(#a)"><rect width="46.739" height="86" x="86" fill="#002007" rx="9.457" transform="rotate(90 86 0)"/><path fill="#002007" d="M8.924 42.064a3.783 3.783 0 0 1-3.782-3.782V8.457a3.784 3.784 0 0 1 3.782-3.784h68.62a3.783 3.783 0 0 1 3.782 3.783v29.826a3.783 3.783 0 0 1-3.782 3.782H8.924Z"/><path fill="#66994D" d="M5.142 30.705h.5-.5Zm76.184 7.577h.5-.5Zm-3.782 3.782v-.5.5Zm0-37.39v-.5.5Zm3.782 3.782h-.5.5ZM8.924 4.673v.5-.5Zm0 37.391v.5-.5Zm-3.782-3.782h-.5.5ZM8.924 5.173h68.62v-1H8.924v1Zm71.902 3.283v29.826h1V8.456h-1Zm-3.282 33.108H8.924v1h68.62v-1ZM5.642 38.282v-7.577h-1v7.577h1Zm0-7.577V8.457h-1V30.705h1Zm75.184 7.577a3.283 3.283 0 0 1-3.282 3.282v1a4.283 4.283 0 0 0 4.282-4.282h-1ZM77.544 5.173a3.283 3.283 0 0 1 3.282 3.283h1a4.283 4.283 0 0 0-4.282-4.283v1Zm-68.62-1a4.284 4.284 0 0 0-4.282 4.284h1a3.284 3.284 0 0 1 3.282-3.284v-1Zm0 37.391a3.283 3.283 0 0 1-3.282-3.282h-1a4.283 4.283 0 0 0 4.282 4.282v-1Z"/></g><defs><clipPath id="a"><rect width="46.739" height="86" x="86" fill="#fff" rx="9.457" transform="rotate(90 86 0)"/></clipPath></defs></svg>
